X:26
T:Gan Ainm
R:Jig
S:Johnny McGreevy, Chicago (fiddle)
D:From RTE 'The Pure Drop'
N:As played
M:6/8
Z:Bernie Stocks
K:G
|: ~G3 G2d | edB dBA |  ~G3 G2d | gdB AFD | ~G3 GBd | edB ~g3 | 
edB {de}dBA |1 BGG ~G2D :|2 BGG G2B || def ~g3 | {b}afd edB | def ~g3 | 
{b}afd e2d | {e}def ~g3 | {b}afd efg | edB {e}dBA | BGG G2B | def ~g3 | 
{b}afd edB | def ~g3 | {b}afd e2d | def gbb | faa efg | edB {e}dBA | BGG G2B ||
<end>
<start>
